X:15011
T:Old Joe's Jig
R:Jig
C:Trad.
O:USA
Z:Paul Hardy's Session Tunebook 2015 (see www.paulhardy.net). Creative Commons cc by-nc-sa licenced.
M:6/8
L:1/8
Q:3/8=90
K:D
d/e/|"D"fAA AFA|"G"BGB "D"A2A|"G"BdB "D"AFA|"Bm"Bcd "A"efg|
"D"fAA AFA|"G"BGB "D"A2A|"G"BdB "D"AFA|"G"Bd"A7"c "D"d2:|
|:d/e/|"D"faf "A"efe|"D"dBA d2e|faa afd|"F#m"faa "G"b2a|
"D"faf "A"efe|"G"dBA "D"d2e|fAA AFA|"G"Bd"A7"c "D"d2:|

